client/components/jetpack/daily-backup-status/status-card/icons/cloud-success.svg

<svg width="50" height="52" viewBox="0 0 50 52" fill="none" xmlns="http://www.w3.org/2000/svg">
<mask id="mask0" mask-type="alpha" maskUnits="userSpaceOnUse" x="0" y="8" width="50" height="35">
<path d="M39.9484 21.3796C38.5445 14.033 32.289 8.51782 24.7742 8.51782C18.8077 8.51782 13.6258 12.0101 11.0452 17.1207C4.83097 17.8021 0 23.2322 0 29.8121C0 36.8605 5.55355 42.5887 12.3871 42.5887H39.2258C44.9239 42.5887 49.5484 37.8188 49.5484 31.9415C49.5484 26.3198 45.3161 21.7629 39.9484 21.3796Z" fill="#A7AAAD"/>
</mask>
<g mask="url(#mask0)">
<rect width="49.5484" height="51.1063" fill="#069E08"/>
</g>
<mask id="mask1" mask-type="alpha" maskUnits="userSpaceOnUse" x="0" y="8" width="50" height="35">
<path d="M39.9484 21.3796C38.5445 14.033 32.289 8.51782 24.7742 8.51782C18.8077 8.51782 13.6258 12.0101 11.0452 17.1207C4.83097 17.8021 0 23.2322 0 29.8121C0 36.8605 5.55355 42.5887 12.3871 42.5887H39.2258C44.9239 42.5887 49.5484 37.8188 49.5484 31.9415C49.5484 26.3198 45.3161 21.7629 39.9484 21.3796Z" fill="#fff"/>
</mask>
<g mask="url(#mask1)">
</g>
<path fill-rule="evenodd" clip-rule="evenodd" d="M22.6691 30.3927L16.8094 25.4881L15.2244 27.5027L23.0372 34.0422L23.0372 34.0421L23.0373 34.0422L32.5475 21.9544L30.5943 20.3196L22.6691 30.3927Z" fill="#dcdcde"/>
<mask id="mask2" mask-type="alpha" maskUnits="userSpaceOnUse" x="15" y="20" width="18" height="15">
<path fill-rule="evenodd" clip-rule="evenodd" d="M22.6691 30.3927L16.8094 25.4881L15.2244 27.5027L23.0372 34.0422L23.0372 34.0421L23.0373 34.0422L32.5475 21.9544L30.5943 20.3196L22.6691 30.3927Z" fill="#fff"/>
</mask>
<g mask="url(#mask2)">
<rect width="20.1303" height="20.7494" transform="matrix(0.994289 -0.106717 0.100377 0.99495 13.0974 18.0608)" fill="#fff"/>
</g>
</svg>

<svg width="50" height="52" fill="none" xmlns="http://www.w3.org/2000/svg"><path d="M39.948 21.38C38.544 14.033 32.29 8.518 24.774 8.518c-5.966 0-11.148 3.492-13.729 8.603C4.831 17.802 0 23.232 0 29.812 0 36.861 5.554 42.59 12.387 42.59h26.839c5.698 0 10.322-4.77 10.322-10.647 0-5.622-4.232-10.18-9.6-10.562z" fill="#069E08"/><path fill-rule="evenodd" clip-rule="evenodd" d="M22.67 30.393l-5.86-4.905-1.586 2.015 7.813 6.54 9.51-12.089-1.953-1.634-7.925 10.073z" fill="#fff"/></svg>
